X: 24689
T: MacLeod's Farewell
R: reel
M: 4/4
K: Dmajor
DE|:F2BF AFEF|D2 DE FABd|e2 fd efdA|B2eB dBAG|
F2BF AFEF|D2 DE FABd|e2fd efdB|1 ABde dBAG:|2 ABde d3||
|:B|A2 fA eAdA|Adfd efdA|B2 BA BdAB|dBAF EDB,D|
F2BF AFEF|D2DE FA (3Bcd|e2fd efdB|1 ABde d3:|2 ABde dBAG||

